!!!!SEGMENT: pl-cz--ii-87--002-002_grim-jozef--spiewy-do-dwoch-mszy-gloria.krn
!!!cenid: 18xx:1174
!!!COM: Grim, Józef
!!!COM-rismID:
!!!CDT: ~1800-~1899
!!!CNT:
!!!OPR: Śpiewy do dwóch mszy
!!!OTL: Gloria
!!!OMV: 002
!!!PDT: 1888
!!!AGN: Sacred; Mass
!!!SMS-siglum: PL-CZ
!!!SMS-shelfmark: II-87
!!!SMS-shelfwork: 002-002 M
!!!SMS-variant:
!!!SMS-altvar:
!!!NIFC-rismSourceID: 300033225
!!!NIFC-islandoraID: pl-cz:33881
!!!URL-pdf-islandora: https://repozytorium.nifc.pl/islandora/object/pl-cz%3A33881/datastream/PDF/view
!!!URL-scan:
!!!ONB-nifc: UWAGA: części Mszy: Kirie, Gloria, Credo, Offertorium, Sanctus, Benedictus, Agnus Dei
!!!AIN: 1 organ 1 vox
!!!key: C
!!!OMD: Allegro Moderato.
**kern	**kern	**dynam	**kern	**text
*part2	*part2	*part2	*part1	*part1
*staff3	*staff2	*	*staff1	*staff1
*I"Organ	*I"Organ	*	*I"Głos	*
*Iorgan	*Iorgan	*	*Ivox	*
*ICklav	*ICklav	*	*ICvox	*
*IGacmp	*IGacmp	*	*IGsolo	*
*clefF4	*clefG2	*	*clefG2	*
*k[]	*k[]	*	*k[]	*
*C:	*C:	*	*C:	*
*M4/4	*M4/4	*	*M4/4	*
*met(c)	*met(c)	*	*met(c)	*
=1	=1	=1	=1	=1
*	*^	*	*	*
*	*	*^	*	*	*
!	!	!	!	!LO:DY:rj	!	!
4c 4C\	2cc/	2e\	4g\	f	1r	.
4A\	.	.	[4a\	.	.	.
4F\	4dd/	2ryy	4a] 4f\	.	.	.
4G\	4b/	.	4g 4f\	.	.	.
*	*	*v	*v	*	*	*
=2	=2	=2	=2	=2	=2
4C/	2.cc/	2.g 2.e\	.	2r	.
4GG/	.	.	.	.	.
4CC/	.	.	.	4r	.
4r	4r	4ryy	.	4ryy	.
*	*v	*v	*	*	*
=3||	=3||	=3||	=3||	=3||
4G\	4g/	.	8g/	Chwa-
.	.	.	8g/	-ła
=4	=4	=4	=4	=4
*	*^	*	*	*
4C/	2cc/	2g 2e\	.	4cc\	Pa-
4c\	.	.	.	4cc\	-nu
4G\	2dd/	2b 2g\	.	4dd\	na
4GG/	.	.	.	4dd\	Sy-
=5	=5	=5	=5	=5	=5
*^	*	*	*	*	*
4C/	2ryy	2ee/	2cc 2g\	.	2ee\	-o-
8E\L	.	.	.	.	.	.
8G\J	.	.	.	.	.	.
4c\	4ryy	4cc 4g/	4e\	.	4cc\	-nie
4c/	4E\	8cc/L	4g\	.	8cc\	niech
.	.	8b/J	.	.	8b\	się
=6	=6	=6	=6	=6	=6	=6
2c/	2F\	2a/	4f\	.	4a/	zle-
.	.	.	4a\	.	4a/	-je
2d/	2F#X\	4.dd/	2a\	.	4.dd\	niech
.	.	8cc/	.	.	8cc\	ze-
=7	=7	=7	=7	=7	=7	=7
2d/	2G\	4cc/	4a\	.	4cc\	-spo-
.	.	4b/	4g\	.	4b\	-li!
8G\L	2ryy	4r	2ryy	.	4r	.
8Fn\	.	.	.	.	.	.
8E\	.	4g/	.	.	8g/	po-
8D\J	.	.	.	.	8g/	-koj
*v	*v	*	*	*	*	*
!!LO:LB:g=original
=8	=8	=8	=8	=8	=8
4C/	2cc/	2g 2e\	.	4cc\	swię-
4c\	.	.	.	4cc\	-ty
4G\	2dd/	4b 4g\	.	4dd\	niech
4F\	.	4a\	.	4dd\	o-
=9	=9	=9	=9	=9	=9
4E\	2ee/	4g#X\	.	2ee\	-wio-
4G#X\	.	4b\	.	.	.
4A\	4cc/	4a\	.	4cc\	-nie
4F\	8ccL 8a/	4ryy	.	8cc\	wszys-
.	8aJ 8f/	.	.	8a/	-tkich
=10	=10	=10	=10	=10	=10
2G/	2g/	2e\	.	4g/	lu-
.	.	.	.	4g/	-dzi
2GG/	4a/	2f\	.	4a/	do-
.	4b/	.	.	4b/	-brej
=11	=11	=11	=11	=11	=11
4AA/	2.cc/	2.e\	.	2cc\	wo-
4E\	.	.	.	.	.
4A\	.	.	.	4cc\	-li,
4F\	8ccL 8a/	4ryy	.	8cc\	wszys-
.	8aJ 8f/	.	.	8a/	-tkich
=12	=12	=12	=12	=12	=12
*	*	*^	*	*	*
4G\	4g/	4e\	4ryy	.	4g/	lu-
4A\	4cc/	4e\	2a/	.	4cc\	-dzi
4F\	4dd/	4f\	.	.	4dd\	do-
4G\	4b 4g/	4f\	4ryy	.	4b\	-brej
*	*	*v	*v	*	*	*
=13	=13	=13	=13	=13	=13
4C/	2.cc/	2.g 2.e\	.	2cc\	wo-
4GG/	.	.	.	.	.
2CC/	.	.	.	4cc\	-li.
.	4g/	4e 4c\	.	4r	.
*	*v	*v	*	*	*
==	==	==	==	==
*-	*-	*-	*-	*-
!!!system-decoration: <s1>(s2,s3)
!!!ENC: Andrzej Borzym
!!!END: 2020-11-07
!!!ENC: Marta Lawrence
!!!END: 2021-11-14
